src/assets/img/component-categories/modals.svg

<?xml version="1.0" encoding="UTF-8"?>
<svg width="169px" height="102px" viewBox="0 0 169 102" version="1.1" xmlns="http://www.w3.org/2000/svg" xmlns:xlink="http://www.w3.org/1999/xlink">
    <!-- Generator: Sketch 41.2 (35397) - http://www.bohemiancoding.com/sketch -->
    <title>modals-category</title>
    <desc>Created with Sketch.</desc>
    <defs>
        <rect id="path-1" x="29.73" y="16.8349515" width="114.92" height="70.3106796" rx="5.43312"></rect>
        <filter x="-50%" y="-50%" width="200%" height="200%" filterUnits="objectBoundingBox" id="filter-2">
            <feOffset dx="0" dy="4" in="SourceAlpha" result="shadowOffsetOuter1"></feOffset>
            <feGaussianBlur stdDeviation="2" in="shadowOffsetOuter1" result="shadowBlurOuter1"></feGaussianBlur>
            <feComposite in="shadowBlurOuter1" in2="SourceAlpha" operator="out" result="shadowBlurOuter1"></feComposite>
            <feColorMatrix values="0 0 0 0 0   0 0 0 0 0   0 0 0 0 0  0 0 0 0.24 0" type="matrix" in="shadowBlurOuter1"></feColorMatrix>
        </filter>
        <mask id="mask-3" maskContentUnits="userSpaceOnUse" maskUnits="objectBoundingBox" x="0" y="0" width="114.92" height="70.3106796" fill="white">
            <use xlink:href="#path-1"></use>
        </mask>
    </defs>
    <g id="Website" stroke="none" stroke-width="1" fill="none" fill-rule="evenodd" opacity="0.87">
        <g id="Material-components-" transform="translate(-559.000000, -642.000000)">
            <g id="intro-card-copy-4" transform="translate(536.000000, 537.000000)">
                <g id="modals-category" transform="translate(23.000000, 103.000000)">
                    <g id="Dialog-Component">
                        <g id="Page-1">
                            <g id="Material-Internal-Landing-Page-(Components)">
                                <g id="dialog">
                                    <rect id="card" fill="#00BCD4" x="1" y="2" width="167.31" height="100.019417" rx="7.92"></rect>
                                    <rect id="footer" fill="#F4F6F7" x="0" y="67.3398058" width="169" height="34.6601942" rx="7.92"></rect>
                                    <path d="M60.0896428,15.8442718 L102.585529,15.8442718 L105.931729,15.8442718 L105.931729,11.9227184 L102.585529,11.9227184 L60.0896428,11.9227184 L56.7434428,11.9227184 L56.7434428,15.8442718 L60.0896428,15.8442718 Z M60.0896428,24.7568932 L102.585529,24.7568932 L105.931729,24.7568932 L105.931729,20.8353398 L102.585529,20.8353398 L60.0896428,20.8353398 L56.7434428,20.8353398 L56.7434428,24.7568932 L60.0896428,24.7568932 Z M29.73,28.7378641 C39.0636123,28.7378641 46.63,24.3041791 46.63,18.8349515 C46.63,13.3657238 39.0636123,8.93203883 29.73,8.93203883 C20.3963877,8.93203883 12.83,13.3657238 12.83,18.8349515 C12.83,24.3041791 20.3963877,28.7378641 29.73,28.7378641 Z" id="header" fill="#FFFFFF"></path>
                                    <rect id="background" fill-opacity="0.840000033" fill="#CED2D4" x="1" y="2" width="167.31" height="102" rx="7.92"></rect>
                                    <g id="dialog-screen">
                                        <use fill="black" fill-opacity="1" filter="url(#filter-2)" xlink:href="#path-1"></use>
                                        <use stroke="#00BCD4" mask="url(#mask-3)" stroke-width="4" fill="#FFFFFF" fill-rule="evenodd" xlink:href="#path-1"></use>
                                    </g>
                                </g>
                            </g>
                        </g>
                    </g>
                </g>
            </g>
        </g>
    </g>
</svg>

<svg width="169" height="102" viewBox="0 0 169 102" xmlns="http://www.w3.org/2000/svg" xmlns:xlink="http://www.w3.org/1999/xlink"><title>modals-category</title><defs><rect id="a" x="29.73" y="16.835" width="114.92" height="70.311" rx="5.433"/><filter x="-50%" y="-50%" width="200%" height="200%" filterUnits="objectBoundingBox" id="b"><feOffset dy="4" in="SourceAlpha" result="shadowOffsetOuter1"/><feGaussianBlur stdDeviation="2" in="shadowOffsetOuter1" result="shadowBlurOuter1"/><feComposite in="shadowBlurOuter1" in2="SourceAlpha" operator="out" result="shadowBlurOuter1"/><feColorMatrix values="0 0 0 0 0 0 0 0 0 0 0 0 0 0 0 0 0 0 0.24 0" in="shadowBlurOuter1"/></filter><mask id="c" x="0" y="0" width="114.92" height="70.311" fill="#fff"><use xlink:href="#a"/></mask></defs><g transform="translate(0 -2)" fill="none" fill-rule="evenodd" opacity=".87"><rect fill="#00BCD4" x="1" y="2" width="167.31" height="100.019" rx="7.92"/><rect fill="#F4F6F7" y="67.34" width="169" height="34.66" rx="7.92"/><path d="M60.09 15.844h45.842v-3.921H56.743v3.921h3.347zm0 8.913h45.842v-3.922H56.743v3.922h3.347zm-30.36 3.98c9.334 0 16.9-4.433 16.9-9.902 0-5.47-7.566-9.903-16.9-9.903s-16.9 4.434-16.9 9.903c0 5.47 7.566 9.903 16.9 9.903z" fill="#FFF"/><rect fill-opacity=".84" fill="#CED2D4" x="1" y="2" width="167.31" height="102" rx="7.92"/><use fill="#000" filter="url(#b)" xlink:href="#a"/><use stroke="#00BCD4" mask="url(#c)" stroke-width="4" fill="#FFF" xlink:href="#a"/></g></svg>
